!!!!SEGMENT: pl-sa--l-1636--007_anonim--toccata.krn
!!!cenid: 17xx:714
!!!COM: Anonim
!!!COM-rism: pe30004985
!!!CDT:
!!!CNT:
!!!OTL: Toccata
!!!PDT:
!!!AGN: Secular; Toccata
!!!SMS-siglum: PL-SA
!!!SMS-shelfmark: L 1636
!!!NIFC-rismID: 1001076386
!!!URL-scan: http://repozytorium.nifc.pl/skany/pl-sa-nut--l1636
!!!ONB-nifc: 2v, skan 0006
!!!SMS-variant:
!!!SMS-altvar:
**kern	**kern
*part2	*part1
*staff2	*staff1
*clefF4	*clefG2
*k[]	*k[]
*M2/2	*M2/2
*met(c|)	*met(c|)
=1	=1
*all\right	*all\right
*^	*^
!	!	!LO:TX:b:t=Tocata&colon;	!
*	*	*	*2\right
[2C/	2CC/	8gg/L	2ee\
.	.	16aa/L	.
.	.	16gg/JJ	.
.	.	(8.ffT/L	.
.	.	16ee/Jk)	.
8C/L]	2ryy	2ff/	2dd\
16D/L	.	.	.
16C/JJ	.	.	.
8.BBt/L	.	.	.
16AA/Jk	.	.	.
=2	=2	=2	=2
*	*2\right	*	*
2D/	2BB\	8ff/L	4dd\
.	.	16gg/L	.
.	.	16ff/JJ	.
*	*	*v	*v
.	.	8.ee/L
.	.	[16ddT/Jk
*	*	*^
2C/	2CC/	2ee/	4dd\]
.	.	.	8.cc\L
.	.	.	16b\Jk
*v	*v	*	*
=3	=3	=3
8E\L	2ee 2cc/	2g\
16F\L	.	.
16E\JJ	.	.
8.DT/L	.	.
16C/Jk	.	.
8F#X\L	2dd 2b/	2g\
16G\L	.	.
16A\JJ	.	.
8.GT\L	.	.
16F#\Jk	.	.
!!LO:LB:g=original
=4	=4	=4
*^	*	*
[2G/	2GG/	8dd/L	4b\
.	.	16ee/L	.
.	.	16dd/JJ	.
*	*	*v	*v
.	.	8.cc/L
.	.	16b/Jk
*v	*v	*^
8G\L]	2cc/	2a\
16A\L	.	.
16G\JJ	.	.
8.F\L	.	.
16E\Jk	.	.
=5	=5	=5
*^	*	*
2A/	2F#X\	8cc/L	4a\
.	.	16dd/L	.
.	.	16ee/JJ	.
*	*	*v	*v
.	.	8.dd/L
.	.	16cc/Jk
*v	*v	*^
8BB/L	2b/	2g\
16C/L	.	.
16D/JJ	.	.
8.C/L	.	.
16BB/Jk	.	.
*	*v	*v
=6	=6
*^	*
8c/L	4C\	8e/L
8B/J	.	16f/L
.	.	16g/JJ
8A/L	4D\	8f#X/L
8B/J	.	16g/L
.	.	16a/JJ
2A/	2D\	4.g/
.	.	8g/
=7	=7	=7
*	*	*^
2G/	2GG\	2g/	8B\L
.	.	.	16c\L
.	.	.	16d\JJ
.	.	.	8.c\L
.	.	.	16B\Jk
!!LO:LB:g=original
8E\L	2ryy	2e/	2c\
16F\L	.	.	.
16G\JJ	.	.	.
8.F\L	.	.	.
16E\Jk	.	.	.
=8	=8	=8	=8
2D/	2DD/	2f/	8c\L
.	.	.	16d\L
.	.	.	16c\JJ
.	.	.	8.B\L
.	.	.	16A\Jk
8D\L	2ryy	2f/	2d 2B/
16E\L	.	.	.
16F\JJ	.	.	.
8.Et\L	.	.	.
16D\Jk	.	.	.
*	*	*v	*v
=9	=9	=9
2C/	2CC/	8e/L
.	.	16f/L
.	.	16g/JJ
.	.	8.f/L
.	.	16e/Jk
*	*	*^
8BB/L	2ryy	2f/	2d\
16C/L	.	.	.
16D/JJ	.	.	.
8.C/L	.	.	.
16BB,/Jk	.	.	.
=10	=10	=10	=10
4.E\	2ryy	8g/L	2ryy
.	.	16a/L	.
.	.	16g/JJ	.
.	.	8.f/L	.
8F\	.	.	.
.	.	16e/Jk	.
!!LO:LB:g=original
*	*	*clefC1	*
!	!	!LO:TX:a:t=Canto	!
!	!	!LO:N:vis=2	!
2G/	2GG/	4.d/	8c\L
.	.	.	16B\L
.	.	.	16A\JJ
.	.	.	4B\
.	.	8f/	.
*v	*v	*	*
*	*v	*v
=11	=11
!LO:TX:a:t=P:problem:kreska taktowa :||:	!LO:TX:a:t=P:problem:kreska taktowa :||:
1C 1GG 1CC	1e 1c 1G
==	==
*-	*-
!!!system-decoration: s1,s2
!!!ENC: Marta Lawrence
!!!END: 2020-12-07
!!!ENC: Andrzej Borzym
!!!END: 2020-06-11
